demos/KANBAN/public/icons/Categories.svg

<svg width="30" height="30" viewBox="0 0 30 30" fill="none" xmlns="http://www.w3.org/2000/svg">
<rect width="30" height="30" rx="4" fill="#E7E5FF"/>
<path fill-rule="evenodd" clip-rule="evenodd" d="M6.68919 2C5.75621 2 5 2.75621 5 3.68919V25.3108C5 26.2438 5.75621 27 6.68919 27H22.9054C23.8384 27 24.5946 26.2438 24.5946 25.3108V3.68919C24.5946 2.75621 23.8384 2 22.9054 2H6.68919ZM9.48619 2.67562H6.68919C6.12927 2.67562 5.67561 3.12925 5.67561 3.68919V25.3108C5.67561 25.8707 6.12925 26.3244 6.68919 26.3244H22.9054C23.4653 26.3244 23.919 25.8707 23.919 25.3108V3.68919C23.919 3.12927 23.4653 2.67562 22.9054 2.67562H20.1084L19.6637 4.00965C19.5259 4.42347 19.1384 4.7027 18.7022 4.7027H10.8927C10.4565 4.7027 10.0691 4.42345 9.93122 4.00965L9.48619 2.67562ZM19.3963 2.67562H10.1987L10.5722 3.79591C10.6181 3.93401 10.7473 4.02685 10.8927 4.02685H18.7022C18.8476 4.02685 18.9767 3.934 19.0226 3.79591L19.3963 2.67562Z" fill="#817AF3" fill-opacity="0.8"/>
<path fill-rule="evenodd" clip-rule="evenodd" d="M8.04053 9.43227C8.04053 8.87259 8.49416 8.4187 9.0541 8.4187H10.4053C10.9653 8.4187 11.4189 8.87257 11.4189 9.43227V10.7835C11.4189 11.3434 10.9653 11.7971 10.4053 11.7971H9.0541C8.49418 11.7971 8.04053 11.3434 8.04053 10.7835V9.43227ZM9.0541 9.09434C8.86746 9.09434 8.71617 9.24563 8.71617 9.43227V10.7835C8.71617 10.9701 8.86746 11.1214 9.0541 11.1214H10.4053C10.592 11.1214 10.7433 10.9701 10.7433 10.7835V9.43227C10.7433 9.24563 10.592 9.09434 10.4053 9.09434H9.0541Z" fill="#817AF3" fill-opacity="0.8"/>
<path fill-rule="evenodd" clip-rule="evenodd" d="M8.04053 14.4999C8.04053 13.9402 8.49416 13.4863 9.0541 13.4863H10.4053C10.9653 13.4863 11.4189 13.9402 11.4189 14.4999V15.8511C11.4189 16.4111 10.9653 16.8647 10.4053 16.8647H9.0541C8.49418 16.8647 8.04053 16.4111 8.04053 15.8511V14.4999ZM9.0541 14.162C8.86746 14.162 8.71617 14.3133 8.71617 14.4999V15.8511C8.71617 16.0378 8.86746 16.1891 9.0541 16.1891H10.4053C10.592 16.1891 10.7433 16.0378 10.7433 15.8511V14.4999C10.7433 14.3133 10.592 14.162 10.4053 14.162H9.0541Z" fill="#817AF3" fill-opacity="0.8"/>
<path fill-rule="evenodd" clip-rule="evenodd" d="M8.04053 19.5675C8.04053 19.0078 8.49416 18.554 9.0541 18.554H10.4053C10.9653 18.554 11.4189 19.0078 11.4189 19.5675V20.9188C11.4189 21.4787 10.9653 21.9323 10.4053 21.9323H9.0541C8.49418 21.9323 8.04053 21.4787 8.04053 20.9188V19.5675ZM9.0541 19.2296C8.86746 19.2296 8.71617 19.3809 8.71617 19.5675V20.9188C8.71617 21.1054 8.86746 21.2567 9.0541 21.2567H10.4053C10.592 21.2567 10.7433 21.1054 10.7433 20.9188V19.5675C10.7433 19.3809 10.592 19.2296 10.4053 19.2296H9.0541Z" fill="#817AF3" fill-opacity="0.8"/>
<path fill-rule="evenodd" clip-rule="evenodd" d="M12.7703 10.108C12.7703 9.92132 12.9216 9.77026 13.1082 9.77026H21.5541C21.7408 9.77026 21.8921 9.92132 21.8921 10.108C21.8921 10.2946 21.7408 10.4459 21.5541 10.4459H13.1082C12.9216 10.4459 12.7703 10.2946 12.7703 10.108Z" fill="#817AF3" fill-opacity="0.8"/>
<path fill-rule="evenodd" clip-rule="evenodd" d="M12.7703 15.1756C12.7703 14.9889 12.9216 14.8379 13.1082 14.8379H21.5541C21.7408 14.8379 21.8921 14.9889 21.8921 15.1756C21.8921 15.3622 21.7408 15.5135 21.5541 15.5135H13.1082C12.9216 15.5135 12.7703 15.3622 12.7703 15.1756Z" fill="#817AF3" fill-opacity="0.8"/>
<path fill-rule="evenodd" clip-rule="evenodd" d="M12.7703 20.2432C12.7703 20.0566 12.9216 19.9055 13.1082 19.9055H21.5541C21.7408 19.9055 21.8921 20.0566 21.8921 20.2432C21.8921 20.4299 21.7408 20.5812 21.5541 20.5812H13.1082C12.9216 20.5812 12.7703 20.4299 12.7703 20.2432Z" fill="#817AF3" fill-opacity="0.8"/>
</svg>

<svg xmlns="http://www.w3.org/2000/svg" width="30" height="30" fill="none"><rect width="30" height="30" fill="#E7E5FF" rx="4"/><path fill="#817AF3" fill-opacity=".8" fill-rule="evenodd" d="M6.69 2A1.69 1.69 0 0 0 5 3.69v21.62c0 .934.756 1.69 1.69 1.69h16.215a1.69 1.69 0 0 0 1.69-1.69V3.69A1.69 1.69 0 0 0 22.905 2H6.69Zm2.796.676H6.69c-.56 0-1.013.453-1.013 1.013v21.622c0 .56.453 1.013 1.013 1.013h16.216c.56 0 1.014-.453 1.014-1.013V3.689c0-.56-.454-1.013-1.014-1.013h-2.797l-.444 1.334a1.013 1.013 0 0 1-.962.693h-7.81c-.435 0-.823-.28-.96-.693l-.446-1.334Zm9.91 0H10.2l.373 1.12c.046.138.175.23.32.23h7.81a.337.337 0 0 0 .32-.23l.374-1.12Z" clip-rule="evenodd"/><path fill="#817AF3" fill-opacity=".8" fill-rule="evenodd" d="M8.04 9.432c0-.56.454-1.013 1.014-1.013h1.351c.56 0 1.014.454 1.014 1.013v1.351c0 .56-.454 1.014-1.014 1.014h-1.35c-.56 0-1.014-.454-1.014-1.014v-1.35Zm1.014-.338a.338.338 0 0 0-.338.338v1.351c0 .187.151.338.338.338h1.351a.338.338 0 0 0 .338-.338v-1.35a.338.338 0 0 0-.338-.339h-1.35ZM8.04 14.5c0-.56.454-1.014 1.014-1.014h1.351c.56 0 1.014.454 1.014 1.014v1.351c0 .56-.454 1.014-1.014 1.014h-1.35c-.56 0-1.014-.454-1.014-1.014V14.5Zm1.014-.338a.338.338 0 0 0-.338.338v1.351c0 .187.151.338.338.338h1.351a.338.338 0 0 0 .338-.338V14.5a.338.338 0 0 0-.338-.338h-1.35ZM8.04 19.567c0-.56.454-1.013 1.014-1.013h1.351c.56 0 1.014.454 1.014 1.014v1.35c0 .56-.454 1.014-1.014 1.014h-1.35c-.56 0-1.014-.453-1.014-1.013v-1.352Zm1.014-.337a.338.338 0 0 0-.338.337v1.352c0 .186.151.338.338.338h1.351a.338.338 0 0 0 .338-.338v-1.352a.338.338 0 0 0-.338-.337h-1.35ZM12.77 10.108c0-.187.152-.338.338-.338h8.446a.338.338 0 1 1 0 .676h-8.446a.338.338 0 0 1-.338-.338ZM12.77 15.176c0-.187.152-.338.338-.338h8.446a.338.338 0 1 1 0 .676h-8.446a.338.338 0 0 1-.338-.338ZM12.77 20.243c0-.186.152-.337.338-.337h8.446a.338.338 0 1 1 0 .675h-8.446a.338.338 0 0 1-.338-.338Z" clip-rule="evenodd"/></svg>
